Papirus/64x64/mimetypes/application-x-hda.svg

<svg width="64" height="64" version="1.1" xmlns="http://www.w3.org/2000/svg">
 <path d="m7.0108508 21.72315c-0.0063 0.10652-0.0099 0.213206-0.01084 0.31992v21.773983c6.51e-4 2.274279 1.2094142 4.375523 3.1711152 5.512481l18.65777 10.81715c1.962238 1.137754 4.379992 1.137754 6.34223 0l18.657766-10.81715c1.962536-1.137447 3.17143-3.239958 3.171108-5.515216v-21.771248c-3e-3 -0.0803-0.0076-0.1605-0.0136-0.240624 0.0136-0.002504-49.975549-0.079296-49.975549-0.079296z" style="opacity:.2"/>
 <path d="m7.0108508 20.72315c-0.0063 0.10652-0.0099 0.213206-0.01084 0.31992v21.773983c6.51e-4 2.274279 1.2094142 4.375523 3.1711152 5.512481l18.65777 10.81715c1.962238 1.137754 4.379992 1.137754 6.34223 0l18.657766-10.81715c1.962536-1.137447 3.17143-3.239958 3.171108-5.515216v-21.771248c-3e-3 -0.0803-0.0076-0.1605-0.0136-0.240624 0.0136-0.002504-49.975549-0.079296-49.975549-0.079296z" style="fill:#c25824"/>
 <path d="m32.149312 4.0000003v0.00278a6.346037 6.442821 0 0 0-3.322838 0.8577294l-18.671951 10.9459a6.346037 6.442821 0 0 0-3.154523 5.165822 6.346037 6.442821 0 0 0 3.154523 5.218396l18.671951 10.9459a6.346037 6.442821 0 0 0 6.34705 0l18.671954-10.9459a6.346037 6.442821 0 0 0 3.154522-5.165824 6.346037 6.442821 0 0 0-3.154522-5.218394l-18.671954-10.9459a6.346037 6.442821 0 0 0-3.024212-0.8605094z" style="fill:#f36128"/>
 <path d="m32.148438 4v0.00391a6.346037 6.442821 0 0 0-3.320313 0.855465l-18.671875 10.945313a6.346037 6.442821 0 0 0-3.15625 5.167968 6.346037 6.442821 0 0 0 0.0546875 0.476563 6.346037 6.442821 0 0 1 3.1015625-4.644531l18.671875-10.945313a6.346037 6.442821 0 0 1 3.320313-0.8554688v-0.0039062a6.346037 6.442821 0 0 1 3.023437 0.859375l18.671875 10.945313a6.346037 6.442821 0 0 1 3.101562 4.689453 6.346037 6.442821 0 0 0 0.054688-0.470703 6.346037 6.442821 0 0 0-3.15625-5.21875l-18.671875-10.945313a6.346037 6.442821 0 0 0-3.023437-0.859375z" style="fill:#ffffff;opacity:.2"/>
 <path d="m7.0117188 20.722656c-0.00415 0.07015-0.00599 0.140685-0.00781 0.210938a6.346037 6.442821 0 0 1 0.021484-0.210938h-0.013672zm-0.00977 0.267578c-2.948e-4 0.017567-0.001794 0.035166-0.0019488 0.052735v21.773437c6.51e-4 2.274279 1.210174 4.376714 3.171875 5.513672l18.65625 10.816406c1.009643 0.585416 2.045141 0.870536 3.171875 0.853516v-22.005859a6.346037 6.442821 0 0 1-3.173828-0.857422l-18.671875-10.945313a6.346037 6.442821 0 0 1-3.1523439-5.201172z" style="opacity:.1"/>
 <path d="m7.0546875 20.501953a6.346037 6.442821 0 0 0-0.0546875 0.470703 6.346037 6.442821 0 0 0 3.15625 5.21875l18.671875 10.945313a6.346037 6.442821 0 0 0 6.34375 0l18.671875-10.945313a6.346037 6.442821 0 0 0 3.15625-5.167968 6.346037 6.442821 0 0 0-0.054688-0.476563 6.346037 6.442821 0 0 1-3.101562 4.644531l-18.671875 10.945313a6.346037 6.442821 0 0 1-6.34375 0l-18.671875-10.945313a6.346037 6.442821 0 0 1-3.1015625-4.689453z" style="opacity:.1"/>
 <path d="m43.527341 29.899011c-3.956204 2.310515-8.810554 3.647919-11.278111 4.012999-1.964661 0.290676-4.40864 0.320845-7.299286-0.04865-2.32831-1.364837-3.774752-2.208032-5.189774-3.044343 2.145317 0.318803 4.755418 0.616501 7.191947 0.830696 3.45666 0.303874 8.640306-0.923728 12.59998-3.187843 0.265603-0.151781 0.528995-0.309975 0.789843-0.474017 5.944761-3.739664 5.445526-9.056141 0.556105-12.085523-5.480921-3.396828-12.809454-3.550213-18.606682 0.143261-3.891506 2.479124-4.985911 6.428598-0.817632 8.765197 3.276565 1.836999 8.121132 1.982579 11.856589-0.155909 3.047532-1.744757 2.264567-3.674498 1.027079-4.424375-1.177302-0.713406-3.419163-1.198662-5.545508-0.347714-1.711131 0.684773-2.244248 2.768737 1.236158 3.039059-1.466839 0.969326-3.753313 1.209858-5.526684 0.252575-3.461614-1.86931-1.306442-4.765182 1.270423-5.923403 4.761461-2.140422 8.919227-1.48067 12.428856 0.69261 3.633519 2.250658 3.371797 6.264099-1.022789 8.920779-3.477756 2.102079-8.290253 3.616235-15.339652 1.813853s-8.83765-5.765516-7.440371-9.993645c1.135433-3.312339 5.975365-6.976129 12.868672-8.042919 6.893307-1.0667907 12.412673-0.305214 17.547815 2.901598 7.258334 4.533837 7.314805 11.320639-1.306979 16.355715l1e-6 1e-6" style="opacity:.2"/>
 <path d="m43.527341 28.899276c-3.956204 2.310515-8.810554 3.647919-11.278111 4.012999s-5.734854 0.318262-9.627596-0.413754l-5.264807-3.086191c2.332627 0.461834 6.13863 0.933772 9.59529 1.237646s8.640306-0.923728 12.59998-3.187843c0.265603-0.151781 0.528995-0.309975 0.789843-0.474017 5.944761-3.739664 5.445526-9.056141 0.556105-12.085523-5.480921-3.396828-12.809454-3.550213-18.606682 0.143261-3.891506 2.479124-4.985911 6.428598-0.817632 8.765197 3.276565 1.836999 8.121132 1.982579 11.856589-0.155909 3.047532-1.744757 2.264567-3.674498 1.027079-4.424375-1.177302-0.713406-3.419163-1.198662-5.545508-0.347714-1.711131 0.684773-2.244248 2.768737 1.236158 3.039059-1.466839 0.969326-3.753313 1.209858-5.526684 0.252575-3.461614-1.86931-1.306442-4.765182 1.270423-5.923403 4.761461-2.140422 8.919227-1.48067 12.428856 0.69261 3.633519 2.250658 3.371797 6.264099-1.022789 8.920779-3.477756 2.102079-8.290253 3.616235-15.339652 1.813853s-8.83765-5.765516-7.440371-9.993645c1.135433-3.312339 5.975365-6.976129 12.868672-8.0429195 6.893307-1.0667907 12.412673-0.3052144 17.547815 2.9015985 7.258334 4.533837 7.314805 11.320639-1.306979 16.355715l1e-6 1e-6" style="fill:#e4e4e4"/>
</svg>

<svg xmlns="http://www.w3.org/2000/svg" width="64" height="64" version="1.1">
 <path style="opacity:0.2" d="M 7.0109,21.723 C 7.0046,21.83 7.001,21.936 7,22.043 V 43.817 C 7.0007,46.091 8.2094,48.193 10.171,49.33 L 28.829,60.147 C 30.791,61.284 33.209,61.284 35.171,60.147 L 53.829,49.33 C 55.791,48.192 57,46.09 57,43.814 V 22.043 C 56.997,21.963 56.992,21.883 56.986,21.802 57,21.8 7.0109,21.723 7.0109,21.723 Z"/>
 <path style="fill:#c25824" d="M 7.0109,20.723 C 7.0046,20.83 7.001,20.936 7,21.043 V 42.817 C 7.0007,45.091 8.2094,47.193 10.171,48.33 L 28.829,59.147 C 30.791,60.284 33.209,60.284 35.171,59.147 L 53.829,48.33 C 55.791,47.192 57,45.09 57,42.814 V 21.043 C 56.997,20.963 56.992,20.883 56.986,20.802 57,20.8 7.0109,20.723 7.0109,20.723 Z"/>
 <path style="fill:#f36128" d="M 32.149,4 V 4.0028 A 6.346,6.4428 0 0 0 28.826,4.8605 L 10.155,15.806 A 6.346,6.4428 0 0 0 7,20.972 6.346,6.4428 0 0 0 10.155,26.191 L 28.826,37.137 A 6.346,6.4428 0 0 0 35.174,37.137 L 53.845,26.191 A 6.346,6.4428 0 0 0 57,21.025 6.346,6.4428 0 0 0 53.845,15.806 L 35.174,4.8605 A 6.346,6.4428 0 0 0 32.149,4 Z"/>
 <path style="opacity:0.2;fill:#ffffff" d="M 32.148,4 V 4.0039 A 6.346,6.4428 0 0 0 28.828,4.8594 L 10.156,15.805 A 6.346,6.4428 0 0 0 7,20.973 6.346,6.4428 0 0 0 7.0547,21.449 6.346,6.4428 0 0 1 10.156,16.805 L 28.828,5.8594 A 6.346,6.4428 0 0 1 32.148,5.0039 V 5 A 6.346,6.4428 0 0 1 35.172,5.8594 L 53.844,16.805 A 6.346,6.4428 0 0 1 56.945,21.494 6.346,6.4428 0 0 0 57,21.023 6.346,6.4428 0 0 0 53.844,15.805 L 35.172,4.8594 A 6.346,6.4428 0 0 0 32.148,4 Z"/>
 <path style="opacity:0.1" d="M 7.0117,20.723 C 7.0076,20.793 7.0057,20.863 7.0039,20.934 A 6.346,6.4428 0 0 1 7.0254,20.723 Z M 7.0019,20.99 C 7.0017,21.008 7.0002,21.025 7,21.043 V 42.816 C 7.0007,45.091 8.2102,47.193 10.172,48.33 L 28.828,59.146 C 29.838,59.732 30.873,60.017 32,60 V 37.994 A 6.346,6.4428 0 0 1 28.826,37.137 L 10.154,26.191 A 6.346,6.4428 0 0 1 7.002,20.99 Z"/>
 <path style="opacity:0.1" d="M 7.0547,20.502 A 6.346,6.4428 0 0 0 7,20.973 6.346,6.4428 0 0 0 10.156,26.191 L 28.828,37.137 A 6.346,6.4428 0 0 0 35.172,37.137 L 53.844,26.191 A 6.346,6.4428 0 0 0 57,21.023 6.346,6.4428 0 0 0 56.945,20.547 6.346,6.4428 0 0 1 53.844,25.191 L 35.172,36.137 A 6.346,6.4428 0 0 1 28.828,36.137 L 10.156,25.191 A 6.346,6.4428 0 0 1 7.0547,20.502 Z"/>
 <path style="opacity:0.2" d="M 43.527,29.899 C 39.571,32.21 34.717,33.547 32.249,33.912 30.285,34.203 27.841,34.233 24.95,33.863 22.622,32.499 21.175,31.655 19.76,30.819 21.905,31.138 24.516,31.436 26.952,31.65 30.409,31.954 35.592,30.726 39.552,28.462 39.818,28.31 40.081,28.152 40.342,27.988 46.287,24.248 45.787,18.932 40.898,15.902 35.417,12.506 28.089,12.352 22.291,16.046 18.4,18.525 17.305,22.474 21.474,24.811 24.75,26.648 29.595,26.793 33.33,24.655 36.378,22.91 35.595,20.98 34.357,20.231 33.18,19.517 30.938,19.032 28.812,19.883 27.101,20.568 26.568,22.652 30.048,22.922 28.581,23.891 26.295,24.132 24.521,23.174 21.06,21.305 23.215,18.409 25.792,17.251 30.553,15.111 34.711,15.77 38.221,17.944 41.854,20.194 41.592,24.208 37.198,26.864 33.72,28.966 28.908,30.481 21.858,28.678 14.809,26.876 13.021,22.913 14.418,18.685 15.553,15.372 20.393,11.708 27.287,10.642 34.18,9.5749 39.699,10.336 44.834,13.543 52.093,18.077 52.149,24.864 43.527,29.899 V 29.899"/>
 <path style="fill:#e4e4e4" d="M 43.527,28.899 C 39.571,31.21 34.717,32.547 32.249,32.912 29.782,33.277 26.514,33.231 22.622,32.499 L 17.357,29.412 C 19.689,29.874 23.495,30.346 26.952,30.65 30.409,30.954 35.592,29.726 39.552,27.462 39.818,27.31 40.081,27.152 40.342,26.988 46.287,23.248 45.787,17.932 40.898,14.903 35.417,11.506 28.089,11.352 22.291,15.046 18.4,17.525 17.305,21.474 21.474,23.811 24.75,25.648 29.595,25.794 33.33,23.655 36.378,21.91 35.595,19.981 34.357,19.231 33.18,18.517 30.938,18.032 28.812,18.883 27.101,19.568 26.568,21.652 30.048,21.922 28.581,22.891 26.295,23.132 24.521,22.175 21.06,20.305 23.215,17.41 25.792,16.251 30.553,14.111 34.711,14.771 38.221,16.944 41.854,19.195 41.592,23.208 37.198,25.865 33.72,27.967 28.908,29.481 21.858,27.679 14.809,25.876 13.021,21.913 14.418,17.685 15.553,14.373 20.393,10.709 27.287,9.642 34.18,8.5752 39.699,9.3367 44.834,12.544 52.093,17.077 52.149,23.864 43.527,28.899 V 28.899"/>
</svg>
